X: 14
T:The Rocky Road to Dublin
M:9/8
L:1/8
R:170
K:G
|:efe d2 B A3|E2 A A2 A Bcd|efe d2 B A2 c|B2 G G2 A Bcd:|
eaa aef g3|eaa a2 A Bcd|eaa aef g2 e|d2 B G2 A Bcd|
eaa aef g3|eaa a2 A Bcd|efg fga g2 e|d2 B G2 A Bcd||

